src/assets/outline/Maximize4.svg

<svg width="24" height="24" viewBox="0 0 24 24"  xmlns="http://www.w3.org/2000/svg">
<path d="M21 9.75C20.59 9.75 20.25 9.41 20.25 9V3.75H15C14.59 3.75 14.25 3.41 14.25 3C14.25 2.59 14.59 2.25 15 2.25H21C21.41 2.25 21.75 2.59 21.75 3V9C21.75 9.41 21.41 9.75 21 9.75Z" />
<path d="M9 21.75H3C2.59 21.75 2.25 21.41 2.25 21V15C2.25 14.59 2.59 14.25 3 14.25C3.41 14.25 3.75 14.59 3.75 15V20.25H9C9.41 20.25 9.75 20.59 9.75 21C9.75 21.41 9.41 21.75 9 21.75Z" />
<path d="M13.4999 11.2504C13.3099 11.2504 13.1199 11.1804 12.9699 11.0304C12.6799 10.7404 12.6799 10.2604 12.9699 9.97043L20.4699 2.47043C20.7599 2.18043 21.2399 2.18043 21.5299 2.47043C21.8199 2.76043 21.8199 3.24043 21.5299 3.53043L14.0299 11.0304C13.8799 11.1804 13.6899 11.2504 13.4999 11.2504Z" />
<path d="M2.99994 21.7504C2.80994 21.7504 2.61994 21.6804 2.46994 21.5304C2.17994 21.2404 2.17994 20.7604 2.46994 20.4704L9.96994 12.9704C10.2599 12.6804 10.7399 12.6804 11.0299 12.9704C11.3199 13.2604 11.3199 13.7404 11.0299 14.0304L3.52994 21.5304C3.37994 21.6804 3.18994 21.7504 2.99994 21.7504Z" />
</svg>

<?xml version="1.0" encoding="UTF-8"?>
<svg width="24" height="24" viewBox="0 0 24 24" xmlns="http://www.w3.org/2000/svg">
 <path d="m21 9.75c-0.41 0-0.75-0.34-0.75-0.75v-5.25h-5.25c-0.41 0-0.75-0.34-0.75-0.75s0.34-0.75 0.75-0.75h6c0.41 0 0.75 0.34 0.75 0.75v6c0 0.41-0.34 0.75-0.75 0.75z"/>
 <path d="m9 21.75h-6c-0.41 0-0.75-0.34-0.75-0.75v-6c0-0.41 0.34-0.75 0.75-0.75s0.75 0.34 0.75 0.75v5.25h5.25c0.41 0 0.75 0.34 0.75 0.75s-0.34 0.75-0.75 0.75z"/>
 <path d="m13.5 11.25c-0.19 0-0.38-0.07-0.53-0.22-0.29-0.29-0.29-0.77 0-1.06l7.5-7.5c0.29-0.29 0.77-0.29 1.06 0s0.29 0.77 0 1.06l-7.5 7.5c-0.15 0.15-0.34 0.22-0.53 0.22z"/>
 <path d="m2.9999 21.75c-0.19 0-0.38-0.07-0.53-0.22-0.29-0.29-0.29-0.77 0-1.06l7.5-7.5c0.28996-0.29 0.76996-0.29 1.06 0s0.29 0.77 0 1.06l-7.5 7.5c-0.15 0.15-0.34 0.22-0.53 0.22z"/>
</svg>
